lib/functional/commerce/coin-vertical.svg

<svg xmlns="http://www.w3.org/2000/svg" fill="none" stroke="currentColor" aria-hidden="true" viewBox="0 0 32 32"><g id="Icon-CoinVertical"><g clip-path="url(#clip0_12_6684)"><g id="size=md (32px)"><g id="CoinVertical"><path id="Vector" stroke-linecap="round" stroke-linejoin="round" stroke-width="2" d="M13 28C16.866 28 20 22.6274 20 16C20 9.37258 16.866 4 13 4C9.13401 4 6 9.37258 6 16C6 22.6274 9.13401 28 13 28Z"/><path id="Vector_2" stroke-linecap="round" stroke-linejoin="round" stroke-width="2" d="M13 4H19C22.8625 4 26 9.375 26 16C26 22.625 22.8625 28 19 28H13"/><path id="Vector_3" stroke-linecap="round" stroke-linejoin="round" stroke-width="2" d="M18.2129 8H24.2129"/><path id="Vector_4" stroke-linecap="round" stroke-linejoin="round" stroke-width="2" d="M20 16H26"/><path id="Vector_5" stroke-linecap="round" stroke-linejoin="round" stroke-width="2" d="M18.2129 24H24.2129"/></g></g></g></g><defs><clipPath id="clip0_12_6684"><rect width="32" height="32" fill="white" rx="5"/></clipPath></defs></svg>

<svg xmlns="http://www.w3.org/2000/svg" fill="none" stroke="currentColor" aria-hidden="true" viewBox="0 0 32 32"><g stroke="#101828" stroke-linecap="round" stroke-linejoin="round" stroke-width="2" clip-path="url(#a)"><path d="M13 28c3.866 0 7-5.373 7-12S16.866 4 13 4 6 9.373 6 16s3.134 12 7 12Z"/><path d="M13 4h6c3.863 0 7 5.375 7 12s-3.137 12-7 12h-6m5.213-20h6M20 16h6m-7.787 8h6"/></g><defs><clipPath id="a"><rect width="32" height="32" fill="#fff" rx="5"/></clipPath></defs></svg>
